( // Run this code to make sure extensions are installed
try {
	TBrownRand.class;
	"Successful SC3Plugins install".postln;
} {
	"********ERROR: SC3Plugins is not installed".postln;
};

try {
	VarSawOS.class;
	"Successful Oversampling Oscialltors install".postln;
} {
	"********ERROR: Oversampling Oscillators is not installed".postln;
};

try {
	VALadder.class;
	"Successful Ported Plugins install".postln;
} {
	"********ERROR: Ported Plugins is not installed".postln;
};
)